utils/icon设计资源/icons/exclamation-diamond-fill.svg

<?xml version="1.0" encoding="UTF-8" standalone="no"?>
<svg
   xmlns:dc="http://purl.org/dc/elements/1.1/"
   xmlns:cc="http://creativecommons.org/ns#"
   xmlns:rdf="http://www.w3.org/1999/02/22-rdf-syntax-ns#"
   xmlns:svg="http://www.w3.org/2000/svg"
   xmlns="http://www.w3.org/2000/svg"
   xmlns:sodipodi="http://sodipodi.sourceforge.net/DTD/sodipodi-0.dtd"
   xmlns:inkscape="http://www.inkscape.org/namespaces/inkscape"
   inkscape:version="1.0 (4035a4fb49, 2020-05-01)"
   sodipodi:docname="exclamation-diamond-fill.svg"
   id="svg3134"
   version="1.1"
   fill="currentColor"
   class="bi bi-exclamation-diamond-fill"
   viewBox="0 0 16 16"
   height="1em"
   width="1em">
  <metadata
     id="metadata3140">
    <rdf:RDF>
      <cc:Work
         rdf:about="">
        <dc:format>image/svg+xml</dc:format>
        <dc:type
           rdf:resource="http://purl.org/dc/dcmitype/StillImage" />
      </cc:Work>
    </rdf:RDF>
  </metadata>
  <defs
     id="defs3138" />
  <sodipodi:namedview
     inkscape:current-layer="svg3134"
     inkscape:window-maximized="1"
     inkscape:window-y="-9"
     inkscape:window-x="-9"
     inkscape:cy="6.4578313"
     inkscape:cx="8"
     inkscape:zoom="51.875"
     showgrid="false"
     id="namedview3136"
     inkscape:window-height="1001"
     inkscape:window-width="1920"
     inkscape:pageshadow="2"
     inkscape:pageopacity="0"
     guidetolerance="10"
     gridtolerance="10"
     objecttolerance="10"
     borderopacity="1"
     bordercolor="#666666"
     pagecolor="#ffffff" />
  <path
     d="M 8 0 C 7.62 3.7007434e-17 7.2392188 0.14554687 6.9492188 0.43554688 L 0.43554688 6.9492188 C -0.14445312 7.5292188 -0.14445313 8.4698281 0.43554688 9.0488281 L 6.9511719 15.564453 C 7.5311719 16.144453 8.4717813 16.144453 9.0507812 15.564453 L 15.566406 9.0488281 C 16.146406 8.4688281 16.146406 7.5282187 15.566406 6.9492188 L 9.0507812 0.43554688 C 8.7607813 0.14554688 8.38 -3.7007434e-17 8 0 z M 8 4 A 0.905 0.905 0 0 1 8.9003906 4.9941406 L 8.5507812 8.5019531 A 0.552 0.552 0 0 1 7.4492188 8.5019531 L 7.0996094 4.9941406 A 0.905 0.905 0 0 1 8 4 z M 8.0019531 10 A 1 1 0 0 1 8.0019531 12 A 1 1 0 0 1 8.0019531 10 z "
     style="fill:#000000;fill-opacity:1;fill-rule:evenodd"
     id="path3132" />
</svg>

<svg width="1em" height="1em" viewBox="0 0 16 16" class="bi bi-exclamation-diamond-fill" fill="currentColor" xmlns="http://www.w3.org/2000/svg">
  <path fill-rule="evenodd" d="M9.05.435c-.58-.58-1.52-.58-2.1 0L.436 6.95c-.58.58-.58 1.519 0 2.098l6.516 6.516c.58.58 1.519.58 2.098 0l6.516-6.516c.58-.58.58-1.519 0-2.098L9.05.435zM8 4a.905.905 0 0 0-.9.995l.35 3.507a.552.552 0 0 0 1.1 0l.35-3.507A.905.905 0 0 0 8 4zm.002 6a1 1 0 1 0 0 2 1 1 0 0 0 0-2z"/>
</svg>
